src/public/images/favicon-prod.svg

<svg width="16" height="16" viewBox="0 0 16 16" fill="none" xmlns="http://www.w3.org/2000/svg">
  <rect width="16" height="16" rx="4" fill="#FF7E1D" />
  <g clip-path="url(#clip0)">
    <path
      d="M12.9374 8.7857C12.7767 9.83034 12.2946 10.7768 11.5357 11.5357C10.7767 12.2946 9.83031 12.7768 8.78566 12.9375C8.78566 12.9286 8.77673 12.9196 8.77673 12.9107V12.9018C8.7678 12.8839 8.7678 12.875 8.75888 12.8482C8.74995 12.8214 8.74102 12.7946 8.73209 12.7678C8.68745 12.6428 8.66066 12.5 8.63388 12.3571V12.3482C8.63388 12.3303 8.62495 12.3125 8.62495 12.2946V12.2857C8.62495 12.2678 8.61602 12.25 8.61602 12.2411V12.2232C8.61602 12.2053 8.60709 12.1875 8.60709 12.1607C8.59816 12.1161 8.59816 12.0714 8.59816 12.0178V12C8.59816 11.9911 8.59816 11.9821 8.59816 11.9732V11.9553C8.59816 11.9018 8.58923 11.8482 8.58923 11.7857C8.58923 10.0178 10.0357 8.57141 11.8035 8.57141C11.8571 8.57141 11.9196 8.57141 11.9732 8.57141H11.991C11.9999 8.57141 12.0089 8.57141 12.0178 8.57141H12.0357C12.0803 8.57141 12.1339 8.58034 12.1785 8.58927C12.1964 8.58927 12.2232 8.58927 12.2499 8.5982C12.2678 8.5982 12.2857 8.60713 12.2946 8.60713H12.3035C12.3214 8.60713 12.3392 8.60713 12.3571 8.61605H12.366C12.5089 8.64284 12.6428 8.67855 12.7857 8.7232C12.8124 8.73213 12.8392 8.74105 12.866 8.74998C12.8839 8.75891 12.8928 8.75891 12.9107 8.76784H12.9196C12.9196 8.77677 12.9285 8.7857 12.9374 8.7857Z"
      fill="white"
    />
    <path
      opacity="0.6"
      d="M13 8.05358H12.9911C12.9107 8.02679 12.8303 8.00893 12.75 7.98215C12.7411 7.98215 12.7321 7.97322 12.7143 7.97322C12.6428 7.95536 12.5714 7.9375 12.4911 7.92858C12.4911 7.92858 12.4911 7.92858 12.4821 7.92858C12.4643 7.92858 12.4375 7.91965 12.4196 7.91965H12.4018C12.375 7.91965 12.3482 7.91072 12.3303 7.91072C12.3036 7.91072 12.2678 7.90179 12.25 7.90179C12.1964 7.89286 12.1339 7.89286 12.0803 7.88393C12.0625 7.88393 12.0446 7.88393 12.0268 7.88393H11.9821C11.9196 7.88393 11.8571 7.88393 11.7857 7.88393C9.61605 7.88393 7.85713 9.64286 7.85713 11.8125C7.85713 11.875 7.85713 11.9375 7.86605 12.0089V12.0536C7.86605 12.0714 7.86605 12.0893 7.87498 12.1071C7.88391 12.1607 7.88391 12.2232 7.89284 12.2768C7.89284 12.3036 7.90177 12.3304 7.90177 12.3571C7.90177 12.3839 7.9107 12.4107 7.9107 12.4286C7.91963 12.4643 7.91963 12.4911 7.92855 12.5179C7.95534 12.6875 7.99998 12.8571 8.05355 13.0268C8.05355 13.0268 8.05355 13.0268 8.05355 13.0357C6.94641 13.0536 5.89284 12.7054 5.00891 12.0446C5.00891 12.0268 5.00891 12.0089 5.00891 12C5.00891 11.9464 5.00891 11.8839 5.00891 11.8304C5.00891 8.08929 8.05355 5.04465 11.7946 5.04465C11.8482 5.04465 11.9107 5.04465 11.9643 5.04465C11.9821 5.04465 12 5.04465 12.0089 5.04465C12.6696 5.88393 13.0089 6.94643 13 8.05358Z"
      fill="white"
    />
    <path
      opacity="0.3"
      d="M11.3661 4.29464C11.3303 4.29464 11.2857 4.30357 11.25 4.30357C11.1875 4.30357 11.1339 4.3125 11.0714 4.32143C11.0536 4.32143 11.0268 4.32143 11.0089 4.33036C10.9911 4.33036 10.9821 4.33036 10.9643 4.33929C10.8571 4.34821 10.75 4.36607 10.6428 4.38393C10.5625 4.39286 10.4911 4.41071 10.4107 4.41964C10.3661 4.42857 10.3125 4.4375 10.2678 4.44643C10.2143 4.45536 10.1607 4.47321 10.0982 4.48214C10.0803 4.49107 10.0536 4.49107 10.0357 4.5C9.99998 4.50893 9.95534 4.51786 9.91963 4.52679C9.90177 4.52679 9.89284 4.53571 9.87498 4.53571C9.83034 4.54464 9.7857 4.55357 9.74998 4.57143C9.73213 4.58036 9.70534 4.58036 9.68748 4.58929C9.65177 4.59821 9.62498 4.60714 9.58927 4.61607C9.56248 4.625 9.5357 4.63393 9.51784 4.64286C9.4732 4.65179 9.43748 4.66964 9.40177 4.67857C9.39284 4.67857 9.38391 4.6875 9.37498 4.6875C9.32141 4.70536 9.26784 4.72321 9.21427 4.75C9.15177 4.76786 9.0982 4.79464 9.04463 4.8125C9.00891 4.82143 8.9732 4.83929 8.94641 4.85714C8.9107 4.86607 8.88391 4.88393 8.8482 4.89286C8.79463 4.91964 8.73212 4.9375 8.67855 4.96429C8.58034 5.00893 8.48212 5.05357 8.38391 5.10714C8.25891 5.16964 8.14284 5.23214 8.01784 5.30357C7.98213 5.33036 7.93748 5.34821 7.90177 5.375C7.85713 5.40179 7.81248 5.42857 7.75891 5.46429C7.71427 5.49107 7.66963 5.51786 7.63391 5.54464C7.5982 5.57143 7.55355 5.59821 7.51784 5.625C7.48212 5.65179 7.44641 5.67857 7.4107 5.70536C7.32141 5.76786 7.24105 5.83036 7.1607 5.89286C7.12498 5.91964 7.0982 5.94643 7.06248 5.97321C7.00891 6.01786 6.94641 6.07143 6.89284 6.11607C6.8482 6.15179 6.80355 6.19643 6.75891 6.23214C6.7232 6.25893 6.69641 6.29464 6.6607 6.32143C6.55355 6.42857 6.44641 6.52679 6.33927 6.64286C6.30355 6.67857 6.27677 6.70536 6.24998 6.74107C6.20534 6.78571 6.16962 6.83036 6.13391 6.875C6.08034 6.92857 6.0357 6.99107 5.99105 7.04464C5.96427 7.08036 5.93748 7.10714 5.9107 7.14286C5.8482 7.22321 5.7857 7.3125 5.7232 7.39286C5.69641 7.42857 5.66963 7.46429 5.64284 7.5C5.61605 7.53571 5.58927 7.58036 5.56248 7.61607C5.5357 7.66071 5.50891 7.69643 5.48213 7.74107C5.45534 7.78571 5.41963 7.83036 5.39284 7.88393C5.36605 7.91964 5.3482 7.96429 5.32141 8C5.24998 8.11607 5.18748 8.24107 5.12498 8.35714C5.07141 8.45536 5.02677 8.55357 4.98213 8.65179C4.95534 8.70536 4.92855 8.75893 4.9107 8.82143C4.90177 8.84821 4.88391 8.88393 4.87498 8.91964C4.85713 8.95536 4.8482 8.99107 4.83034 9.01786C4.80355 9.07143 4.7857 9.13393 4.76784 9.1875C4.74998 9.24107 4.73213 9.29464 4.70534 9.34821C4.70534 9.35714 4.69641 9.36607 4.69641 9.375C4.67855 9.41071 4.66963 9.45536 4.6607 9.49107C4.65177 9.51786 4.64284 9.54464 4.63391 9.5625C4.62498 9.59821 4.61605 9.625 4.60713 9.66071C4.5982 9.67857 4.5982 9.70536 4.58927 9.72321C4.58034 9.76786 4.56248 9.8125 4.55355 9.84821C4.55355 9.85714 4.54463 9.875 4.54463 9.89286C4.5357 9.92857 4.52677 9.97321 4.51784 10.0089C4.51784 10.0268 4.50891 10.0446 4.49998 10.0714C4.49105 10.125 4.4732 10.1786 4.46427 10.2411C4.45534 10.2857 4.44641 10.3304 4.43748 10.3839C4.41963 10.4643 4.4107 10.5357 4.40177 10.6161C4.38391 10.7232 4.37498 10.8304 4.35713 10.9375C4.35713 10.9554 4.35713 10.9643 4.3482 10.9821C4.3482 11 4.3482 11.0179 4.33927 11.0446C4.33034 11.1071 4.33034 11.1607 4.32141 11.2232C4.32141 11.2589 4.31248 11.3036 4.31248 11.3393C3.4732 10.4554 3.01784 9.29464 2.99998 8.0625C2.98213 6.75 3.4732 5.5 4.37498 4.55357C4.40177 4.51786 4.43748 4.49107 4.46427 4.46429C4.49105 4.4375 4.52677 4.40179 4.55355 4.375C5.49105 3.49107 6.71427 3 7.99998 3H8.06248C9.29463 3.01786 10.4553 3.47321 11.3661 4.29464Z"
      fill="white"
    />
  </g>
  <defs>
    <clipPath id="clip0">
      <rect width="10" height="10" fill="white" transform="translate(3 3)" />
    </clipPath>
  </defs>
</svg>

<svg xmlns="http://www.w3.org/2000/svg" fill="none" viewBox="0 0 16 16">
  <rect width="16" height="16" fill="#FF7E1D" rx="4" />
  <g fill="#fff">
    <path
      d="M12.94 8.79c-.16 1.04-.65 1.99-1.4 2.75a4.92 4.92 0 0 1-2.75 1.4l-.01-.03-.02-.06-.03-.08a2.76 2.76 0 0 1-.1-.41V12.29l-.01-.05v-.02l-.01-.06-.01-.14V11.96l-.01-.17a3.22 3.22 0 0 1 3.21-3.22h.24l.14.02h.07l.04.02H12.36l.43.11.08.03.04.02h.01s0 .02.02.02Z"
    />
    <path
      d="m13 8.05-.25-.07h-.04l-.22-.05-.07-.01H12.33l-.08-.02c-.05 0-.12 0-.17-.02H11.78a3.93 3.93 0 0 0-3.91 4.13v.1l.02.17.01.08.01.07.02.09c.03.17.07.34.12.5v.02a4.92 4.92 0 0 1-3.04-1V11.83a6.8 6.8 0 0 1 6.78-6.79H12.01c.66.84 1 1.9.99 3.01Z"
      opacity=".6"
    />
    <path
      d="M11.37 4.3h-.12l-.18.02-.06.01h-.05l-.32.05-.23.04-.14.03c-.06 0-.1.02-.17.03l-.06.02-.12.03h-.05l-.12.04-.06.02c-.04 0-.07.02-.1.03a.62.62 0 0 0-.07.02l-.12.04h-.03l-.16.07-.17.06a.33.33 0 0 0-.1.05l-.1.03-.16.07-.3.15c-.12.06-.24.12-.36.2l-.12.07-.14.08-.13.08-.11.08-.1.09-.26.18-.1.08-.17.15-.13.11-.1.1-.32.31a.89.89 0 0 0-.09.1l-.12.13-.14.17-.08.1-.19.25-.08.11-.08.12-.08.12c-.02.05-.06.09-.09.14L5.32 8l-.2.36a4.45 4.45 0 0 0-.2.46l-.05.1-.04.1c-.03.05-.04.11-.06.17l-.06.16-.01.03-.04.11c0 .03-.02.05-.03.07l-.02.1-.02.06-.04.13v.04l-.03.12-.02.06c0 .05-.03.1-.04.17a4.28 4.28 0 0 0-.06.38l-.04.32-.01.04-.01.06-.02.18v.12a4.97 4.97 0 0 1 .06-6.79l.08-.09.1-.08A5 5 0 0 1 8 3h.06c1.23.02 2.4.47 3.3 1.3Z"
      opacity=".3"
    />
  </g>
</svg>
